gtk-icons/Papirus-GTK/32x32/apps/baka-mplayer.svg

<?xml version="1.0" encoding="UTF-8" standalone="no"?>
<svg
   xmlns:dc="http://purl.org/dc/elements/1.1/"
   xmlns:cc="http://creativecommons.org/ns#"
   xmlns:rdf="http://www.w3.org/1999/02/22-rdf-syntax-ns#"
   xmlns:svg="http://www.w3.org/2000/svg"
   xmlns="http://www.w3.org/2000/svg"
   xmlns:sodipodi="http://sodipodi.sourceforge.net/DTD/sodipodi-0.dtd"
   xmlns:inkscape="http://www.inkscape.org/namespaces/inkscape"
   viewBox="0 0 32 32"
   id="svg2"
   version="1.1"
   inkscape:version="0.91 r"
   sodipodi:docname="baka-mplayer.svg"
   width="32"
   height="32">
  <metadata
     id="metadata41">
    <rdf:RDF>
      <cc:Work
         rdf:about="">
        <dc:format>image/svg+xml</dc:format>
        <dc:type
           rdf:resource="http://purl.org/dc/dcmitype/StillImage" />
        <dc:title></dc:title>
      </cc:Work>
    </rdf:RDF>
  </metadata>
  <sodipodi:namedview
     pagecolor="#ffffff"
     bordercolor="#666666"
     borderopacity="1"
     objecttolerance="10"
     gridtolerance="10"
     guidetolerance="10"
     inkscape:pageopacity="0"
     inkscape:pageshadow="2"
     inkscape:window-width="1551"
     inkscape:window-height="876"
     id="namedview39"
     showgrid="false"
     inkscape:zoom="13.12"
     inkscape:cx="34.273513"
     inkscape:cy="14.853659"
     inkscape:window-x="49"
     inkscape:window-y="24"
     inkscape:window-maximized="1"
     inkscape:current-layer="svg2" />
  <defs
     id="defs4" />
  <path
     sodipodi:nodetypes="sssssccs"
     inkscape:connector-curvature="0"
     id="path37"
     style="opacity:1;fill:#4d4d4d;fill-opacity:1;fill-rule:evenodd;stroke:none;stroke-width:1.53846157;stroke-linecap:butt;stroke-linejoin:round;stroke-miterlimit:4;stroke-dasharray:none;stroke-opacity:1"
     d="M 3.1200006,2.2210328 C 2,3.3634479 2,8.8310476 2,12.292566 c 0,12.566566 7.2799994,17.707433 14,17.707433 6.72,0 14,-5.140867 14,-17.707433 C 30,8.8653203 30,3.3634491 28.879999,2.2210328 27.759999,1.0786177 20.34,4.6243818 18.1,6.9092124 l -4.2,0 C 11.66,4.6243818 4.2400006,1.0786188 3.1200006,2.2210328 Z" />
  <path
     inkscape:connector-curvature="0"
     id="path31"
     style="fill:#ffffff;fill-opacity:1"
     d="M 19,23.171717 C 19,24.734007 17.657143,26 16.000001,26 14.342857,26 13,24.734008 13,23.171718 c 0,-1.562291 6,-1.562291 6,0 z" />
  <path
     style="fill:#ffffff;fill-opacity:1;fill-rule:evenodd;stroke:none"
     d="M 10 9 A 5.0000007 6.0000003 0 0 0 5 15 A 5.0000007 6.0000003 0 0 0 10 21 A 5.0000007 6.0000003 0 0 0 15 15 A 5.0000007 6.0000003 0 0 0 10 9 z M 10 11 A 3.0000007 3.9999989 0 0 1 13 15 A 3.0000007 3.9999989 0 0 1 10 19 A 3.0000007 3.9999989 0 0 1 7 15 A 3.0000007 3.9999989 0 0 1 10 11 z "
     id="path4299" />
  <path
     id="path4302"
     d="m 22,9 a 5.0000007,6.0000003 0 0 0 -5,6 5.0000007,6.0000003 0 0 0 5,6 5.0000007,6.0000003 0 0 0 5,-6 5.0000007,6.0000003 0 0 0 -5,-6 z m 0,2 a 3.0000007,3.9999989 0 0 1 3,4 3.0000007,3.9999989 0 0 1 -3,4 3.0000007,3.9999989 0 0 1 -3,-4 3.0000007,3.9999989 0 0 1 3,-4 z"
     style="fill:#ffffff;fill-opacity:1;fill-rule:evenodd;stroke:none"
     inkscape:connector-curvature="0" />
  <path
     style="opacity:0.2;fill:#ffffff;fill-opacity:1;fill-rule:evenodd;stroke:none;stroke-width:1.53846157;stroke-linecap:butt;stroke-linejoin:round;stroke-miterlimit:4;stroke-dasharray:none;stroke-opacity:1"
     d="M 3.8125 2 C 3.4980469 2.0079156 3.2591406 2.0779014 3.1191406 2.2207031 C 1.99914 3.3631182 2 8.8314503 2 12.292969 C 2 12.342318 2.0056353 12.386427 2.0058594 12.435547 C 2.0116288 8.9878931 2.0827026 4.2778833 3.1191406 3.2207031 C 4.2391406 2.0782891 11.660391 5.6253257 13.900391 7.9101562 L 18.099609 7.9101562 C 20.339609 5.6253256 27.760859 2.078288 28.880859 3.2207031 C 29.916898 4.2774769 29.988318 9.010942 29.994141 12.435547 C 29.994365 12.386427 30 12.342318 30 12.292969 C 30 8.865723 30.00086 3.3631194 28.880859 2.2207031 C 27.760859 1.078288 20.339609 4.6253257 18.099609 6.9101562 L 13.900391 6.9101562 C 11.940391 4.9109295 6.0136718 1.944591 3.8125 2 z "
     id="path4304" />
  <path
     style="opacity:0.3;fill:#000000;fill-opacity:1;fill-rule:evenodd;stroke:none;stroke-width:1.53846157;stroke-linecap:butt;stroke-linejoin:round;stroke-miterlimit:4;stroke-dasharray:none;stroke-opacity:1"
     d="M 2.0058594 11.435547 C 2.0053942 11.713513 2 12.034707 2 12.292969 C 2 24.859535 9.2799994 30 16 30 C 22.72 30 30 24.859535 30 12.292969 C 30 12.036041 29.994612 11.713082 29.994141 11.435547 C 29.937308 23.894706 22.69361 29 16 29 C 9.3063889 29 2.0626917 23.894706 2.0058594 11.435547 z "
     id="path4309" />
</svg>

<?xml version="1.0" encoding="UTF-8" standalone="no"?>
<svg id="svg2" xmlns:rdf="http://www.w3.org/1999/02/22-rdf-syntax-ns#" xmlns="http://www.w3.org/2000/svg" height="32" width="32" version="1.1" xmlns:cc="http://creativecommons.org/ns#" xmlns:dc="http://purl.org/dc/elements/1.1/" viewBox="0 0 32 32">
 <metadata id="metadata41">
  <rdf:RDF>
   <cc:Work rdf:about="">
    <dc:format>image/svg+xml</dc:format>
    <dc:type rdf:resource="http://purl.org/dc/dcmitype/StillImage"/>
    <dc:title/>
   </cc:Work>
  </rdf:RDF>
 </metadata>
 <path id="path37" d="m3.12 2.221c-1.12 1.1424-1.12 6.61-1.12 10.072 0 12.567 7.28 17.707 14 17.707s14-5.1409 14-17.707c0-3.4277 0-8.9296-1.12-10.072s-8.54 2.4034-10.78 4.6882h-4.2c-2.24-2.2848-9.66-5.8306-10.78-4.6882z" fill-rule="evenodd" fill="#4d4d4d"/>
 <path id="path31" d="m19 23.172c0 1.562-1.343 2.828-3 2.828s-3-1.266-3-2.828c0-1.5623 6-1.5623 6 0z" fill="#fff"/>
 <path id="path4299" d="m10 9a5 6 0 0 0 -5 6 5 6 0 0 0 5 6 5 6 0 0 0 5 -6 5 6 0 0 0 -5 -6zm0 2a3 4 0 0 1 3 4 3 4 0 0 1 -3 4 3 4 0 0 1 -3 -4 3 4 0 0 1 3 -4z" fill-rule="evenodd" fill="#fff"/>
 <path id="path4302" d="m22 9a5 6 0 0 0 -5 6 5 6 0 0 0 5 6 5 6 0 0 0 5 -6 5 6 0 0 0 -5 -6zm0 2a3 4 0 0 1 3 4 3 4 0 0 1 -3 4 3 4 0 0 1 -3 -4 3 4 0 0 1 3 -4z" fill-rule="evenodd" fill="#fff"/>
 <path id="path4304" opacity=".2" d="m3.8125 2c-0.3145 0.0079-0.5534 0.0779-0.6934 0.2207-1.12 1.1424-1.1191 6.6108-1.1191 10.072 0 0.049 0.0056 0.093 0.0059 0.143 0.0057-3.4481 0.0768-8.1581 1.1132-9.2153 1.12-1.1424 8.5409 2.4046 10.781 4.6895h4.2c2.24-2.2849 9.661-5.8319 10.781-4.6895 1.036 1.0568 1.107 5.7902 1.113 9.2153 0-0.05 0.006-0.094 0.006-0.143 0-3.4273 0.001-8.9299-1.119-10.072-1.12-1.1427-8.541 2.4043-10.781 4.6892h-4.2c-1.96-1.9993-7.8863-4.9656-10.088-4.9102z" fill-rule="evenodd" fill="#fff"/>
 <path id="path4309" opacity=".3" d="m2.0059 11.436c-0.0005 0.278-0.0059 0.599-0.0059 0.857 0 12.567 7.28 17.707 14 17.707s14-5.14 14-17.707c0-0.257-0.005-0.58-0.006-0.857-0.057 12.459-7.3 17.564-13.994 17.564-6.6936 0-13.937-5.105-13.994-17.564z" fill-rule="evenodd"/>
</svg>
